;START_OF_HEADER
;HEADER_VERSION:0.1
;FLAVOR:Griffin
;GENERATOR.NAME:Cura_SteamEngine
;GENERATOR.VERSION:2.7.0
;GENERATOR.BUILD_DATE:2017-08-30
;TARGET_MACHINE.NAME:Ultimaker 3
;EXTRUDER_TRAIN.0.INITIAL_TEMPERATURE:205
;EXTRUDER_TRAIN.0.MATERIAL.VOLUME_USED:2722
;EXTRUDER_TRAIN.0.MATERIAL.GUID:506c9f0d-e3aa-4bd4-b2d2-23e2425b1aa9
;EXTRUDER_TRAIN.0.NOZZLE.DIAMETER:0.4
;EXTRUDER_TRAIN.0.NOZZLE.NAME:AA 0.4
;EXTRUDER_TRAIN.1.INITIAL_TEMPERATURE:100
;EXTRUDER_TRAIN.1.MATERIAL.VOLUME_USED:1448
;EXTRUDER_TRAIN.1.MATERIAL.GUID:506c9f0d-e3aa-4bd4-b2d2-23e2425b1aa9
;EXTRUDER_TRAIN.1.NOZZLE.DIAMETER:0.4
;EXTRUDER_TRAIN.1.NOZZLE.NAME:AA 0.4
;BUILD_PLATE.INITIAL_TEMPERATURE:60
;PRINT.TIME:4663
;PRINT.SIZE.MIN.X:9
;PRINT.SIZE.MIN.Y:6
;PRINT.SIZE.MIN.Z:0.27
;PRINT.SIZE.MAX.X:213
;PRINT.SIZE.MAX.Y:207
;PRINT.SIZE.MAX.Z:5.77
;END_OF_HEADER
;Generated with Cura_SteamEngine 2.7.0

T0
G92 E0

M109 S205
G0 F15000 X9 Y6 Z2
G280
G1 F1500 E-6.5
;LAYER_COUNT:36
;LAYER:0
M107
M204 S625
M205 X6 Y6
G0 F4285.7 X76.247 Y70.157 Z0.27
M204 S500
M205 X5 Y5
;TYPE:SKIRT
G1 F1500 E0
G1 F1200 X77.183 Y69.221 E0.01961
G1 X77.733 Y68.728 E0.03055
G1 X78.592 Y68.139 E0.04598
G1 X79.742 Y67.474 E0.06566
G1 X80.401 Y67.139 E0.07661
G1 X81.399 Y66.788 E0.09228
G1 X82.68 Y66.446 E0.11192
G1 X83.402 Y66.294 E0.12285
G1 X84.435 Y66.215 E0.1382
G1 X148.597 Y66.171 E1.08865
G1 X149.219 Y66.199 E1.09787
G1 X150.144 Y66.283 E1.11163
G1 X150.946 Y66.404 E1.12364
G1 X152.757 Y66.789 E1.15107
G1 X153.47 Y66.982 E1.16201
G1 X154.114 Y67.23 E1.17224
G1 X155.805 Y67.983 E1.19966
G1 X156.463 Y68.32 E1.21061
G1 X157.04 Y68.696 E1.22081
G1 X158.539 Y69.785 E1.24826
G1 X159.113 Y70.251 E1.25921
G1 X159.602 Y70.742 E1.26947
G1 X160.84 Y72.118 E1.29689
G1 X161.303 Y72.693 E1.30783
G1 X161.676 Y73.269 E1.31799
G1 X162.601 Y74.87 E1.34538
G1 X162.935 Y75.528 E1.35631
G1 X163.181 Y76.171 E1.36651
G1 X163.754 Y77.931 E1.39393
G1 X163.944 Y78.645 E1.40488
G1 X164.052 Y79.332 E1.41518
G1 X164.245 Y81.173 E1.4426
G1 X164.282 Y81.911 E1.45354
G1 X164.245 Y82.596 E1.46371
G1 X164.052 Y84.439 E1.49116
G1 X163.935 Y85.168 E1.50209
G1 X163.754 Y85.839 E1.51239
G1 X163.182 Y87.598 E1.53979
G1 X162.773 Y88.586 E1.55563
G1 X162.352 Y89.412 E1.56936
G1 X161.793 Y90.324 E1.58521
G1 X160.704 Y91.823 E1.61265
G1 X160.238 Y92.397 E1.62361
G1 X159.747 Y92.886 E1.63387
G1 X158.371 Y94.124 E1.66129
G1 X157.796 Y94.587 E1.67222
G1 X157.22 Y94.96 E1.68239
G1 X155.619 Y95.885 E1.70978
G1 X154.961 Y96.219 E1.72071
G1 X154.317 Y96.465 E1.73092
G1 X152.556 Y97.038 E1.75836
G1 X151.842 Y97.228 E1.7693
G1 X151.155 Y97.336 E1.7796
G1 X149.313 Y97.529 E1.80704
G1 X148.606 Y97.566 E1.81752
G1 X85.106 Y97.601 E2.75817
G1 X84.207 Y97.542 E2.77152
G1 X82.892 Y97.368 E2.79117
G1 X82.166 Y97.232 E2.80211
G1 X81.18 Y96.909 E2.81748
G1 X79.956 Y96.403 E2.8371
G1 X79.289 Y96.085 E2.84804
G1 X78.407 Y95.51 E2.86364
G1 X77.353 Y94.701 E2.88332
G1 X76.793 Y94.22 E2.89426
G1 X76.091 Y93.438 E2.90982
G1 X75.285 Y92.386 E2.92945
G1 X74.868 Y91.776 E2.9404
G1 X74.398 Y90.849 E2.9558
G1 X73.891 Y89.626 E2.97541
G1 X73.646 Y88.929 E2.98635
G1 X73.43 Y87.907 E3.00183
G1 X73.256 Y86.592 E3.02148
G1 X73.197 Y85.661 E3.03529
G1 X73.241 Y77.378 E3.15799
G1 X73.285 Y76.64 E3.16895
G1 X73.472 Y75.654 E3.18381
G1 X73.814 Y74.373 E3.20345
G1 X74.043 Y73.67 E3.21441
G1 X74.5 Y72.716 E3.23008
G1 X75.165 Y71.566 E3.24975
G1 X75.569 Y70.948 E3.26069
G1 X76.247 Y70.157 E3.27612
M204 S625
M205 X6 Y6
G0 F4285.7 X76.494 Y70.404
M204 S500
M205 X5 Y5
G1 F1200 X77.43 Y69.468 E3.29573
G1 X77.967 Y68.989 E3.30639
G1 X78.768 Y68.442 E3.32076
G1 X79.918 Y67.777 E3.34044
G1 X80.56 Y67.452 E3.3511
G1 X81.489 Y67.126 E3.36568
G1 X82.77 Y66.784 E3.38532
G1 X83.474 Y66.637 E3.39598
G1 X84.436 Y66.565 E3.41027
G1 X148.598 Y66.521 E4.36072
G1 X149.188 Y66.548 E4.36947
G1 X150.113 Y66.632 E4.38323
G1 X150.873 Y66.747 E4.39461
G1 X152.684 Y67.132 E4.42204
G1 X153.379 Y67.32 E4.4327
G1 X153.972 Y67.55 E4.44213
G1 X155.663 Y68.303 E4.46955
G1 X156.303 Y68.632 E4.48021
G1 X156.835 Y68.979 E4.48961
G1 X158.334 Y70.068 E4.51706
G1 X158.891 Y70.523 E4.52772
G1 X159.342 Y70.976 E4.53718
G1 X160.58 Y72.352 E4.5646
G1 X161.03 Y72.913 E4.57526
G1 X161.373 Y73.444 E4.58462
G1 X162.298 Y75.045 E4.61201
G1 X162.622 Y75.687 E4.62266
G1 X162.848 Y76.28 E4.63206
G1 X163.421 Y78.04 E4.65948
G1 X163.605 Y78.735 E4.67013
G1 X163.704 Y79.369 E4.67964
G1 X163.897 Y81.21 E4.70706
G1 X163.932 Y81.928 E4.71771
G1 X163.897 Y82.559 E4.72707
G1 X163.704 Y84.402 E4.75452
G1 X163.589 Y85.113 E4.76519
G1 X163.422 Y85.73 E4.77466
G1 X162.85 Y87.489 E4.80206
G1 X162.461 Y88.427 E4.8171
G1 X162.04 Y89.253 E4.83083
G1 X161.51 Y90.119 E4.84587
G1 X160.421 Y91.618 E4.87332
G1 X159.966 Y92.175 E4.88397
G1 X159.513 Y92.626 E4.89344
G1 X158.137 Y93.864 E4.92086
G1 X157.576 Y94.314 E4.93151
G1 X157.045 Y94.657 E4.94088
G1 X155.444 Y95.582 E4.96827
G1 X154.802 Y95.906 E4.97892
G1 X154.208 Y96.132 E4.98833
G1 X152.447 Y96.705 E5.01577
G1 X151.752 Y96.89 E5.02642
G1 X151.119 Y96.988 E5.03591
G1 X149.277 Y97.181 E5.06335
G1 X148.606 Y97.216 E5.0733
G1 X85.106 Y97.251 E6.01394
G1 X84.253 Y97.195 E6.02661
G1 X82.938 Y97.021 E6.04626
G1 X82.231 Y96.887 E6.05692
G1 X81.313 Y96.586 E6.07123
G1 X80.089 Y96.08 E6.09085
G1 X79.441 Y95.768 E6.1015
G1 X78.621 Y95.232 E6.11601
G1 X77.567 Y94.423 E6.13569
G1 X77.021 Y93.954 E6.14636
G1 X76.369 Y93.225 E6.16084
G1 X75.563 Y92.173 E6.18048
G1 X75.158 Y91.578 E6.19114
G1 X74.722 Y90.715 E6.20546
G1 X74.215 Y89.492 E6.22507
G1 X73.976 Y88.813 E6.23574
G1 X73.777 Y87.861 E6.25014
G1 X73.603 Y86.546 E6.26979
G1 X73.547 Y85.663 E6.2829
G1 X73.591 Y77.38 E6.4056
G1 X73.635 Y76.661 E6.41627
G1 X73.81 Y75.744 E6.4301
G1 X74.152 Y74.463 E6.44974
G1 X74.376 Y73.779 E6.4604
G1 X74.803 Y72.892 E6.47498
G1 X75.468 Y71.742 E6.49466
G1 X75.862 Y71.14 E6.50532
G1 X76.494 Y70.404 E6.51969
M204 S625
M205 X6 Y6
G0 F4285.7 X76.742 Y70.652
M204 S500
M205 X5 Y5
G1 F1200 X77.678 Y69.716 E6.5393
G1 X78.2 Y69.25 E6.54966
G1 X78.943 Y68.745 E6.56297
G1 X80.093 Y68.08 E6.58265
G1 X80.718 Y67.765 E6.59302
G1 X81.579 Y67.464 E6.60653
G1 X82.86 Y67.122 E6.62617
G1 X83.545 Y66.981 E6.63653
G1 X84.436 Y66.915 E6.64976
G1 X148.598 Y66.871 E7.60022
G1 X149.156 Y66.896 E7.60849
G1 X150.081 Y66.98 E7.62225
G1 X150.801 Y67.089 E7.63304
G1 X152.612 Y67.474 E7.66046
G1 X153.287 Y67.658 E7.67083
G1 X153.83 Y67.87 E7.67946
G1 X155.521 Y68.623 E7.70688
G1 X156.142 Y68.943 E7.71723
G1 X156.629 Y69.263 E7.72586
G1 X158.128 Y70.352 E7.75331
G1 X158.67 Y70.795 E7.76368
G1 X159.081 Y71.21 E7.77233
G1 X160.319 Y72.586 E7.79975
G1 X160.757 Y73.132 E7.81012
G1 X161.069 Y73.619 E7.81869
G1 X161.994 Y75.22 E7.84608
G1 X162.309 Y75.845 E7.85644
G1 X162.515 Y76.388 E7.86505
G1 X163.088 Y78.148 E7.89246
G1 X163.266 Y78.824 E7.90282
G1 X163.356 Y79.405 E7.91153
G1 X163.549 Y81.246 E7.93895
G1 X163.582 Y81.945 E7.94932
G1 X163.549 Y82.523 E7.95789
G1 X163.356 Y84.366 E7.98534
G1 X163.243 Y85.057 E7.99571
G1 X163.089 Y85.622 E8.00439
G1 X162.517 Y87.381 E8.03179
G1 X162.149 Y88.268 E8.04601
G1 X161.728 Y89.094 E8.05975
G1 X161.226 Y89.913 E8.07398
G1 X160.137 Y91.412 E8.10142
G1 X159.694 Y91.954 E8.11179
G1 X159.279 Y92.365 E8.12045
G1 X157.903 Y93.603 E8.14786
G1 X157.357 Y94.041 E8.15823
G1 X156.87 Y94.353 E8.1668
G1 X155.269 Y95.278 E8.19419
G1 X154.644 Y95.593 E8.20456
G1 X154.1 Y95.799 E8.21317
G1 X152.339 Y96.372 E8.24061
G1 X151.663 Y96.551 E8.25097
G1 X151.082 Y96.64 E8.25967
G1 X149.24 Y96.833 E8.28711
G1 X148.605 Y96.866 E8.29653
G1 X85.105 Y96.901 E9.23717
G1 X84.299 Y96.848 E9.24914
G1 X82.984 Y96.674 E9.26879
G1 X82.296 Y96.543 E9.27916
G1 X81.447 Y96.262 E9.29241
G1 X80.223 Y95.756 E9.31203
G1 X79.593 Y95.453 E9.32239
G1 X78.834 Y94.955 E9.33583
G1 X77.78 Y94.146 E9.35551
G1 X77.25 Y93.689 E9.36588
G1 X76.647 Y93.012 E9.37931
G1 X75.841 Y91.96 E9.39894
G1 X75.448 Y91.381 E9.40931
G1 X75.045 Y90.581 E9.42258
G1 X74.538 Y89.358 E9.44219
G1 X74.307 Y88.697 E9.45256
G1 X74.124 Y87.815 E9.46591
G1 X73.95 Y86.5 E9.48556
G1 X73.897 Y85.664 E9.49796
G1 X73.941 Y77.381 E9.62066
G1 X73.985 Y76.683 E9.63102
G1 X74.148 Y75.834 E9.64383
G1 X74.49 Y74.553 E9.66347
G1 X74.709 Y73.888 E9.67384
G1 X75.106 Y73.067 E9.68735
G1 X75.771 Y71.917 E9.70703
G1 X76.155 Y71.332 E9.7174
G1 X76.742 Y70.652 E9.7307
M204 S625
M205 X6 Y6
G0 F4285.7 X76.989 Y70.899
M204 S500
M205 X5 Y5
G1 F1200 X77.925 Y69.963 E9.75031
G1 X78.433 Y69.512 E9.76037
G1 X79.118 Y69.048 E9.77263
G1 X80.268 Y68.383 E9.79231
G1 X80.875 Y68.078 E9.80237
G1 X81.669 Y67.802 E9.81482
G1 X82.95 Y67.46 E9.83446
G1 X83.616 Y67.324 E9.84453
G1 X84.436 Y67.265 E9.85671
G1 X148.598 Y67.221 E10.80716
G1 X149.124 Y67.245 E10.81496
G1 X150.049 Y67.329 E10.82872
G1 X150.728 Y67.431 E10.83889
G1 X152.539 Y67.816 E10.86632
G1 X153.194 Y67.996 E10.87638
G1 X153.687 Y68.189 E10.88423
G1 X155.378 Y68.942 E10.91165
G1 X155.982 Y69.255 E10.92172
G1 X156.423 Y69.546 E10.92955
G1 X157.922 Y70.635 E10.957
G1 X158.448 Y71.066 E10.96707
G1 X158.821 Y71.444 E10.97494
G1 X160.059 Y72.82 E11.00235
G1 X160.483 Y73.351 E11.01242
G1 X160.766 Y73.794 E11.02021
G1 X161.691 Y75.395 E11.0476
G1 X161.996 Y76.002 E11.05766
G1 X162.182 Y76.496 E11.06548
G1 X162.755 Y78.256 E11.0929
G1 X162.927 Y78.913 E11.10296
G1 X163.008 Y79.442 E11.11089
G1 X163.201 Y81.283 E11.13831
G1 X163.231 Y81.962 E11.14837
G1 X163.201 Y82.486 E11.15615
G1 X163.008 Y84.329 E11.1836
G1 X162.897 Y85 E11.19367
G1 X162.756 Y85.514 E11.20157
G1 X162.184 Y87.273 E11.22897
G1 X161.837 Y88.109 E11.24238
G1 X161.416 Y88.935 E11.25611
G1 X160.943 Y89.707 E11.26952
G1 X159.854 Y91.206 E11.29697
G1 X159.423 Y91.732 E11.30704
G1 X159.045 Y92.105 E11.31491
G1 X157.669 Y93.343 E11.34233
G1 X157.138 Y93.767 E11.35239
G1 X156.695 Y94.05 E11.36018
G1 X155.094 Y94.975 E11.38757
G1 X154.487 Y95.28 E11.39763
G1 X153.992 Y95.467 E11.40547
G1 X152.231 Y96.04 E11.43291
G1 X151.574 Y96.211 E11.44296
G1 X151.046 Y96.292 E11.45087
G1 X149.204 Y96.485 E11.47831
G1 X148.605 Y96.516 E11.4872
G1 X85.105 Y96.551 E12.42784
G1 X84.344 Y96.501 E12.43914
G1 X83.029 Y96.327 E12.45879
G1 X82.362 Y96.199 E12.46885
G1 X81.581 Y95.939 E12.48104
G1 X80.357 Y95.433 E12.50066
G1 X79.745 Y95.137 E12.51073
G1 X79.047 Y94.677 E12.52311
G1 X77.993 Y93.868 E12.5428
G1 X77.479 Y93.423 E12.55287
G1 X76.925 Y92.799 E12.56523
G1 X76.119 Y91.747 E12.58486
G1 X75.738 Y91.185 E12.59492
G1 X75.368 Y90.447 E12.60715
G1 X74.861 Y89.224 E12.62676
G1 X74.638 Y88.582 E12.63683
G1 X74.471 Y87.77 E12.64911
G1 X74.297 Y86.455 E12.66876
G1 X74.247 Y85.666 E12.68047
G1 X74.291 Y77.383 E12.80317
G1 X74.335 Y76.705 E12.81323
G1 X74.486 Y75.924 E12.82502
G1 X74.828 Y74.643 E12.84466
G1 X75.042 Y73.998 E12.85472
G1 X75.409 Y73.242 E12.86717
G1 X76.074 Y72.092 E12.88685
G1 X76.448 Y71.525 E12.89691
G1 X76.989 Y70.899 E12.90917
M204 S625
M205 X6 Y6
G0 F4285.7 X77.237 Y71.147
M204 S500
M205 X5 Y5
G1 F1200 X78.173 Y70.211 E12.92878
G1 X78.666 Y69.774 E12.93854
G1 X79.293 Y69.351 E12.94974
G1 X80.443 Y68.686 E12.96942
G1 X81.032 Y68.391 E12.97918
G1 X81.76 Y68.141 E12.99058
G1 X83.041 Y67.799 E13.01022
G1 X83.686 Y67.668 E13.01997
G1 X84.436 Y67.615 E13.03111
G1 X148.598 Y67.571 E13.98156
G1 X149.093 Y67.593 E13.9889
G1 X150.018 Y67.677 E14.00266
G1 X150.655 Y67.774 E14.0122
G1 X152.466 Y68.159 E14.03963
G1 X153.101 Y68.334 E14.04939
G1 X153.545 Y68.509 E14.05645
G1 X155.236 Y69.262 E14.08388
G1 X155.82 Y69.566 E14.09363
G1 X156.218 Y69.829 E14.10069
G1 X157.717 Y70.918 E14.12814
G1 X158.225 Y71.337 E14.1379
G1 X158.561 Y71.679 E14.145
G1 X159.799 Y73.055 E14.17242
G1 X160.209 Y73.57 E14.18217
G1 X160.463 Y73.969 E14.18917
G1 X161.388 Y75.57 E14.21656
G1 X161.683 Y76.159 E14.22632
G1 X161.849 Y76.605 E14.23337
G1 X162.422 Y78.365 E14.26079
G1 X162.588 Y79.002 E14.27054
G1 X162.659 Y79.478 E14.27767
G1 X162.852 Y81.319 E14.30509
G1 X162.881 Y81.977 E14.31485
G1 X162.852 Y82.45 E14.32187
G1 X162.659 Y84.293 E14.34932
G1 X162.551 Y84.943 E14.35908
G1 X162.423 Y85.406 E14.36619
G1 X161.851 Y87.165 E14.39359
G1 X161.525 Y87.951 E14.4062
G1 X161.104 Y88.777 E14.41993
G1 X160.66 Y89.502 E14.43253
G1 X159.571 Y91.001 E14.45997
G1 X159.152 Y91.509 E14.46973
G1 X158.81 Y91.845 E14.47683
G1 X157.434 Y93.083 E14.50425
G1 X156.919 Y93.493 E14.514
G1 X156.52 Y93.747 E14.52101
G1 X154.919 Y94.672 E14.5484
G1 X154.33 Y94.967 E14.55815
G1 X153.884 Y95.134 E14.56521
G1 X152.123 Y95.707 E14.59264
G1 X151.485 Y95.872 E14.6024
G1 X151.009 Y95.943 E14.60953
G1 X149.167 Y96.136 E14.63697
G1 X148.605 Y96.166 E14.6453
G1 X85.105 Y96.201 E15.58595
G1 X84.39 Y96.154 E15.59656
G1 X83.075 Y95.98 E15.61621
G1 X82.429 Y95.854 E15.62596
G1 X81.714 Y95.615 E15.63713
G1 X80.49 Y95.109 E15.65675
G1 X79.898 Y94.821 E15.6665
G1 X79.26 Y94.399 E15.67783
G1 X78.206 Y93.59 E15.69752
G1 X77.709 Y93.159 E15.70726
G1 X77.203 Y92.586 E15.71859
G1 X76.397 Y91.534 E15.73822
G1 X76.029 Y90.988 E15.74797
G1 X75.692 Y90.313 E15.75915
G1 X75.185 Y89.09 E15.77876
G1 X74.97 Y88.467 E15.78852
G1 X74.818 Y87.724 E15.79976
G1 X74.644 Y86.409 E15.8194
G1 X74.597 Y85.668 E15.8304
G1 X74.641 Y77.385 E15.9531
G1 X74.685 Y76.728 E15.96286
G1 X74.825 Y76.015 E15.97362
G1 X75.167 Y74.734 E15.99326
G1 X75.375 Y74.109 E16.00302
G1 X75.712 Y73.417 E16.01442
G1 X76.377 Y72.267 E16.0341
G1 X76.74 Y71.718 E16.04385
G1 X77.237 Y71.147 E16.05506
M204 S625
M205 X6 Y6
G0 F4285.7 X77.484 Y71.394
M204 S500
M205 X5 Y5
G1 F1200 X78.42 Y70.458 E16.07467
G1 X78.898 Y70.037 E16.08411
G1 X79.469 Y69.654 E16.09429
G1 X80.619 Y68.989 E16.11397
G1 X81.189 Y68.705 E16.1234
G1 X81.85 Y68.479 E16.13375
G1 X83.131 Y68.137 E16.15339
G1 X83.755 Y68.011 E16.16282
G1 X84.437 Y67.965 E16.17295
G1 X148.599 Y67.921 E17.1234
G1 X149.061 Y67.942 E17.13025
G1 X149.986 Y68.026 E17.14401
G1 X150.582 Y68.116 E17.15294
G1 X152.393 Y68.501 E17.18036
G1 X153.007 Y68.672 E17.18981
G1 X153.402 Y68.829 E17.1961
G1 X155.093 Y69.582 E17.22352
G1 X155.658 Y69.877 E17.23297
G1 X156.012 Y70.112 E17.23926
G1 X157.511 Y71.201 E17.26671
G1 X158.002 Y71.607 E17.27614
G1 X158.301 Y71.913 E17.28248
G1 X159.539 Y73.289 E17.3099
G1 X159.934 Y73.788 E17.31933
G1 X160.16 Y74.144 E17.32557
G1 X161.085 Y75.745 E17.35296
G1 X161.369 Y76.315 E17.3624
G1 X161.517 Y76.713 E17.36869
G1 X162.09 Y78.473 E17.39611
G1 X162.248 Y79.09 E17.40554
G1 X162.311 Y79.515 E17.4119
G1 X162.504 Y81.356 E17.43933
G1 X162.531 Y81.992 E17.44876
G1 X162.504 Y82.414 E17.45502
G1 X162.311 Y84.257 E17.48247
G1 X162.205 Y84.885 E17.4919
G1 X162.09 Y85.297 E17.49824
G1 X161.518 Y87.056 E17.52564
G1 X161.214 Y87.792 E17.53744
G1 X160.793 Y88.618 E17.55117
G1 X160.377 Y89.296 E17.56295
G1 X159.288 Y90.795 E17.5904
G1 X158.882 Y91.286 E17.59984
G1 X158.576 Y91.585 E17.60617
G1 X157.2 Y92.823 E17.63359
G1 X156.701 Y93.218 E17.64302
G1 X156.345 Y93.444 E17.64927
G1 X154.744 Y94.369 E17.67666
G1 X154.174 Y94.653 E17.68609
G1 X153.775 Y94.801 E17.69239
G1 X152.014 Y95.374 E17.71983
G1 X151.397 Y95.533 E17.72927
G1 X150.973 Y95.595 E17.73561
G1 X149.131 Y95.788 E17.76305
G1 X148.605 Y95.816 E17.77085
G1 X85.105 Y95.851 E18.7115
G1 X84.436 Y95.807 E18.72143
G1 X83.121 Y95.633 E18.74108
G1 X82.496 Y95.51 E18.75051
G1 X81.848 Y95.292 E18.76064
G1 X80.624 Y94.786 E18.78026
G1 X80.052 Y94.506 E18.78969
G1 X79.473 Y94.122 E18.79999
G1 X78.419 Y93.313 E18.81967
G1 X77.939 Y92.894 E18.82911
G1 X77.48 Y92.374 E18.83938
G1 X76.674 Y91.322 E18.85901
G1 X76.32 Y90.793 E18.86844
G1 X76.015 Y90.178 E18.87861
G1 X75.508 Y88.955 E18.89822
G1 X75.301 Y88.353 E18.90765
G1 X75.165 Y87.678 E18.91785
